app/images/dist/paint.svg

<svg width="19" height="19" viewBox="0 0 19 19" fill="none" xmlns="http://www.w3.org/2000/svg">
<g clip-path="url(#clip0_90_7267)">
<path d="M14.5488 3.30348C14.4652 3.49412 14.2561 3.60003 14.0471 3.55766C11.8524 2.79512 8.96792 3.15521 6.35516 4.51084C3.11533 6.1842 0.920612 9.10727 0.878808 11.7762C0.878808 11.8185 0.878808 11.8397 0.857906 11.8821C0.878808 12.3693 1.04602 12.5387 1.12963 12.6023C1.33865 12.7505 1.94481 12.7082 2.88541 12.0303C2.92721 12.0092 2.94811 11.988 3.01082 11.9668C3.74239 11.6279 4.57848 11.9456 4.93381 12.6446C5.28915 13.3648 5.03832 14.2332 4.32765 14.6357C3.99322 14.8687 3.86781 15.1229 3.95141 15.4406C4.03502 15.7795 4.28585 16.0337 4.62028 16.1184H4.64118H4.66209H4.70389C4.70389 16.1184 4.72479 16.1184 4.74569 16.1184C5.28915 16.2455 5.87441 16.3091 6.48057 16.3091C8.15274 16.3091 9.97122 15.8431 11.6852 14.9534C11.8942 14.8475 12.145 14.9111 12.2704 15.1229C12.375 15.3347 12.3123 15.5889 12.1032 15.716C12.1032 15.716 12.0823 15.716 12.0823 15.7372C10.3684 16.648 8.42446 17.1563 6.50147 17.1775C5.87441 17.1775 5.22644 17.114 4.59938 16.9869C3.97232 16.9233 3.34525 16.3514 3.17804 15.6524C3.01082 14.9958 3.24074 14.3815 3.826 13.9579L3.8469 13.9367L3.86781 13.9155C3.86781 13.9155 3.86781 13.8943 3.88871 13.8943H3.90961C3.90961 13.8943 3.93051 13.8943 3.93051 13.8732C4.24404 13.7037 4.36946 13.3224 4.20224 13.0047C4.11863 12.8564 3.99322 12.7293 3.826 12.687C3.7633 12.7082 3.67969 12.7082 3.61698 12.7082C3.51247 12.7082 3.42886 12.7293 3.32435 12.7717H3.30345C2.57188 13.2801 1.92391 13.5554 1.40136 13.5554C1.12963 13.5554 0.878808 13.4707 0.648885 13.3224C0.042724 12.8988 -0.166297 11.988 0.10543 10.7594V10.7383C0.60708 8.02701 2.86451 5.33693 5.95802 3.72712C8.7798 2.26558 11.9151 1.88431 14.3189 2.71039C14.5488 2.8163 14.6533 3.07048 14.5488 3.30348Z" fill="#222222"/>
<path d="M8.46609 11.7344C7.58821 11.7344 6.89844 12.4546 6.89844 13.323C6.89844 14.1915 7.60911 14.9116 8.46609 14.9116C8.71692 14.9116 8.96774 14.8481 9.17677 14.7422C9.69932 14.4668 10.0338 13.9161 10.0338 13.323C10.0338 12.4334 9.32308 11.7344 8.46609 11.7344ZM9.13496 13.5772C9.07225 13.7678 8.94684 13.9161 8.75872 14.0008C8.65421 14.0432 8.5497 14.0644 8.44519 14.0644C8.36158 14.0644 8.27798 14.0432 8.21527 14.022C8.02715 13.9585 7.88084 13.8314 7.79723 13.6407C7.63001 13.2806 7.77633 12.8358 8.13166 12.6664C8.23617 12.6028 8.34068 12.5816 8.46609 12.5816H8.5497C8.80053 12.6028 9.00955 12.7511 9.11406 12.9841C9.19767 13.1959 9.19767 13.3865 9.13496 13.5772Z" fill="#222222"/>
<path d="M12.7507 5.55023C12.688 5.59259 12.6044 5.61377 12.5417 5.61377H12.5208C12.3327 5.61377 12.1446 5.50786 12.061 5.33841C11.9355 5.08423 12.0401 4.7665 12.2909 4.61823C12.3745 4.57587 12.4581 4.55469 12.5208 4.55469C12.7089 4.55469 12.897 4.6606 12.9806 4.85123C13.1061 5.10541 13.0015 5.42314 12.7507 5.55023Z" fill="#222222"/>
<path d="M9.80346 5.61273C9.74075 5.65509 9.65714 5.67628 9.57353 5.67628C9.38542 5.67628 9.1973 5.57037 9.11369 5.40091C8.98828 5.14673 9.09279 4.82901 9.34361 4.68073C9.42722 4.63837 9.51083 4.61719 9.57353 4.61719C9.76165 4.61719 9.94977 4.7231 10.0334 4.89255C10.1588 5.16791 10.0543 5.48564 9.80346 5.61273Z" fill="#222222"/>
<path d="M7.12967 6.60946C7.08787 6.73655 6.98336 6.84246 6.85794 6.92718C6.79524 6.96955 6.71163 6.99073 6.62802 6.99073C6.50261 6.99073 6.35629 6.92718 6.25178 6.84246C6.14727 6.73655 6.10547 6.60946 6.10547 6.46119C6.10547 6.16464 6.33539 5.93164 6.62802 5.93164C6.81614 5.93164 7.00426 6.03755 7.08787 6.22819C7.15057 6.33409 7.17147 6.48237 7.12967 6.60946Z" fill="#222222"/>
<path d="M4.78729 8.9397C4.78729 9.13033 4.68278 9.32097 4.49466 9.4057C4.41105 9.44806 4.34835 9.46924 4.26474 9.46924C4.11843 9.46924 3.99301 9.4057 3.8885 9.32097C3.78399 9.21506 3.74219 9.08797 3.74219 8.9397C3.74219 8.79143 3.80489 8.66434 3.8885 8.55843C3.99301 8.45252 4.11843 8.41016 4.26474 8.41016C4.41105 8.41016 4.53647 8.4737 4.64098 8.55843C4.72459 8.66434 4.78729 8.81261 4.78729 8.9397Z" fill="#222222"/>
<path d="M18.2283 5.2107C18.8763 4.51171 19.1271 3.51617 18.9181 2.58417L18.3746 0.317726C18.3537 0.232999 18.291 0.148272 18.2283 0.0847269C18.1447 0.0423634 18.0611 0 17.9566 0C17.8312 0 17.7057 0.0635452 17.6221 0.169454L16.1799 1.9699C15.5946 2.75362 15.4274 3.77035 15.7409 4.68116V4.70234V4.72352L15.511 6.75697L15.4901 6.77815C14.3614 7.83724 13.6089 9.53177 13.4835 11.2899L12.961 18.2586C12.9401 18.4705 13.0864 18.6611 13.2954 18.7035L14.6122 19C14.6331 19 14.6749 19 14.6958 19C14.884 19 15.0512 18.8941 15.1139 18.7035L17.4967 12.1371C17.8521 11.1416 18.0193 10.1249 17.9566 9.06577C17.9148 8.47269 17.7894 7.85842 17.5803 7.28651V7.26533L17.7894 6.43924L18.2283 5.2107ZM16.7442 11.8618L14.4659 18.068L13.8807 17.9409V17.8986L14.3614 11.3322C14.445 9.91304 15.0094 8.5786 15.95 7.54069L15.9709 7.51951L16.8279 7.71015V7.73133C16.9951 8.19732 17.0787 8.66332 17.0996 9.1505C17.1832 10.0825 17.0578 10.9933 16.7442 11.8618ZM17.5594 4.65998C17.4967 4.70234 17.4549 4.76589 17.434 4.85061L16.9742 6.20624V6.24861L16.8279 6.82051L16.3889 6.7146L16.5979 4.70234C16.5979 4.61761 16.5979 4.53289 16.5561 4.44816V4.42698C16.3262 3.77035 16.4307 3.05017 16.8488 2.49944L17.7475 1.37681L18.082 2.77481C18.2283 3.4738 18.0402 4.1728 17.5594 4.65998Z" fill="#222222"/>
</g>
<defs>
<clipPath id="clip0_90_7267">
<rect width="19" height="19" fill="white"/>
</clipPath>
</defs>
</svg>

<svg width="19" height="19" fill="none" xmlns="http://www.w3.org/2000/svg"><g clip-path="url(#clip0_90_7267)" fill="#222"><path d="M14.549 3.303a.448.448 0 01-.502.255c-2.195-.763-5.08-.403-7.692.953C3.115 6.184.921 9.107.88 11.776c0 .043 0 .064-.021.106.02.487.188.657.272.72.209.149.815.106 1.755-.572.042-.02.063-.042.126-.063a1.462 1.462 0 011.923.678c.355.72.104 1.588-.606 1.99-.335.234-.46.488-.377.806a.913.913 0 00.67.677h.125a7.587 7.587 0 001.735.191c1.672 0 3.49-.466 5.204-1.356a.438.438 0 01.585.17.45.45 0 01-.167.593s-.02 0-.02.021a12.291 12.291 0 01-5.582 1.44 9.655 9.655 0 01-1.902-.19c-.627-.064-1.254-.636-1.421-1.335-.167-.656.063-1.27.648-1.694l.02-.021.022-.021s0-.022.02-.022h.022s.02 0 .02-.02a.643.643 0 00.272-.87.624.624 0 00-.376-.317c-.063.021-.146.021-.209.021a.729.729 0 00-.293.064h-.02c-.732.508-1.38.783-1.903.783-.271 0-.522-.084-.752-.233-.606-.423-.815-1.334-.544-2.563v-.02c.502-2.712 2.76-5.402 5.853-7.012 2.822-1.461 5.957-1.843 8.36-1.017.23.106.335.36.23.593z"/><path d="M8.466 11.734c-.878 0-1.568.72-1.568 1.589 0 .868.711 1.589 1.568 1.589a1.6 1.6 0 00.71-.17c.523-.275.858-.826.858-1.419 0-.89-.71-1.589-1.568-1.589zm.669 1.843a.683.683 0 01-.376.424.828.828 0 01-.314.063.742.742 0 01-.23-.042.68.68 0 01-.418-.381c-.167-.36-.02-.805.335-.975a.607.607 0 01.334-.084h.084c.25.02.46.17.564.402a.833.833 0 01.021.593zM12.75 5.55a.4.4 0 01-.208.064h-.021a.518.518 0 01-.46-.276.56.56 0 01.23-.72.54.54 0 01.23-.063.5.5 0 01.46.296.529.529 0 01-.23.7zm-2.947.063a.417.417 0 01-.23.063.518.518 0 01-.46-.275.56.56 0 01.23-.72.54.54 0 01.23-.064c.189 0 .377.106.46.276a.547.547 0 01-.23.72zM7.13 6.61a.656.656 0 01-.272.317.417.417 0 01-.23.064.646.646 0 01-.376-.149.514.514 0 01-.147-.38c0-.297.23-.53.523-.53a.5.5 0 01.46.296.482.482 0 01.042.381zM4.787 8.94c0 .19-.104.381-.292.466a.472.472 0 01-.23.063.597.597 0 01-.376-.148.514.514 0 01-.147-.381c0-.149.063-.276.147-.382a.5.5 0 01.376-.148c.146 0 .271.064.376.148a.665.665 0 01.146.382zm13.441-3.73a2.934 2.934 0 00.69-2.626L18.375.318a.55.55 0 00-.147-.233.587.587 0 00-.271-.085.435.435 0 00-.335.17l-1.442 1.8a2.94 2.94 0 00-.44 2.711v.043l-.229 2.033-.02.021c-1.13 1.06-1.882 2.754-2.008 4.512l-.522 6.969a.415.415 0 00.334.444l1.317.297h.084a.427.427 0 00.418-.297l2.383-6.566a7.681 7.681 0 00.46-3.071 6.591 6.591 0 00-.377-1.78v-.02l.21-.827.438-1.228zm-1.484 6.652l-2.278 6.206-.585-.127v-.042l.48-6.567a6.183 6.183 0 011.589-3.791l.02-.021.858.19v.021c.167.466.25.932.272 1.42a6.274 6.274 0 01-.356 2.71zm.815-7.202a.309.309 0 00-.125.19l-.46 1.356v.043l-.146.572-.44-.106.21-2.013c0-.084 0-.17-.042-.254v-.021a2.053 2.053 0 01.293-1.928l.898-1.122.335 1.398c.146.699-.042 1.398-.523 1.885z"/></g><defs><clipPath id="clip0_90_7267"><path fill="#fff" d="M0 0h19v19H0z"/></clipPath></defs></svg>
